X:1
T:Tolångapolkan
S:efter Bror Dahlgren
R:Polka
Z:Patrik Månsson, 4/7 2008
O:Skåne
N:Återfinns bl a i [[!Omtyckta Skånska Allspelslåtar]]
M:2/4
L:1/16
Q:1/4=120
K:G
|: d2BG d2BG| F2AA A2A2| c2AF c2AF| G2BB B2B2|d2BG d2BG| F2AA A2A2| c2AF c2AF| G2G2 G4 :|
|: D3G F2A2| G2B2 BAB2| B2AB cAF2| A2GA BAGE|D3G F2A2|G2B2 BAB2|B2AB cAFA|G2G2 G4:|

